console-network.svg

<svg fill="currentColor" viewBox="0 0 24 24"><path d="M17 3a2 2 0 0 1 2 2v10a2 2 0 0 1-2 2h-4v2h1a1 1 0 0 1 1 1h7v2h-7a1 1 0 0 1-1 1h-4a1 1 0 0 1-1-1H2v-2h7a1 1 0 0 1 1-1h1v-2H7a2 2 0 0 1-2-2V5a2 2 0 0 1 2-2zM7 7l4 4-4 4h2.85l3.28-3.28c.37-.39.37-1.02 0-1.42L9.83 7zm10 6h-3v2h3z"/></svg>

<svg  viewBox="0 0 24 24" fill="currentColor"><path  d="M17,3A2,2 0 0,1 19,5V15A2,2 0 0,1 17,17H13V19H14A1,1 0 0,1 15,20H22V22H15A1,1 0 0,1 14,23H10A1,1 0 0,1 9,22H2V20H9A1,1 0 0,1 10,19H11V17H7A2,2 0 0,1 5,15V5A2,2 0 0,1 7,3H17M7,7L11,11L7,15H9.85L13.13,11.72C13.5,11.33 13.5,10.7 13.13,10.3L9.83,7H7M17,13H14V15H17V13Z"/></svg>
